X: 20392
T: John Doherty's
R: reel
M: 4/4
K: Adorian
EAAB cABd|M:3/2 cABA G3F GAGD|M:4/4 EAAB cABd|1 cABG A3G:|2 cABG A2||
^cd|efe^c d2cd|efe^c d2cd|efe^c BdcB|^cABG A2^cd|
efe^c d2cd|efe^c d2cd|eage dfed|cABG A3G||

